public/img/Tools/FEEDBACK.svg

<svg width="101" height="114" viewBox="0 0 101 114" xmlns="http://www.w3.org/2000/svg" xmlns:xlink="http://www.w3.org/1999/xlink"><title>FEEDBACK</title><defs><path d="M3.733.886H48.14a2.804 2.804 0 0 1 2.787 2.804v28.946a2.804 2.804 0 0 1-2.804 2.805H33.759l-7.063 7.063-7.063-7.063h-15.9a2.805 2.805 0 0 1-2.806-2.805V3.69A2.805 2.805 0 0 1 3.733.886zm31.378 17.641a3.177 3.177 0 1 0 6.354 0 3.177 3.177 0 0 0-6.354 0zm-12.351 0a3.177 3.177 0 1 0 6.354 0 3.177 3.177 0 0 0-6.354 0zm-12.353 0a3.177 3.177 0 1 0 6.354 0 3.177 3.177 0 0 0-6.354 0z" id="a"/></defs><g fill="none" fill-rule="evenodd"><path fill="#00A9C7" d="M100.927 85.148l-50 28.333-50-28.333V28.481l50-28.333 50 28.333z"/><g transform="translate(25 35.12)"><mask id="b" fill="#fff"><use xlink:href="#a"/></mask><path fill="#FFF" mask="url(#b)" d="M-2.658 46.089h57.17V-2.699h-57.17z"/></g></g></svg>

<?xml version="1.0" encoding="UTF-8"?>
<svg width="101px" height="114px" viewBox="0 0 101 114" version="1.1" xmlns="http://www.w3.org/2000/svg" xmlns:xlink="http://www.w3.org/1999/xlink">
    <!-- Generator: Sketch 42 (36781) - http://www.bohemiancoding.com/sketch -->
    <title>FEEDBACK</title>
    <desc>Created with Sketch.</desc>
    <defs>
        <path d="M3.733,0.886 L48.14,0.886 C49.681,0.895 50.927,2.148 50.927,3.69 L50.927,32.636 C50.927,34.186 49.671,35.441 48.123,35.441 L33.759,35.441 L26.696,42.504 L19.633,35.441 L3.733,35.441 C2.183,35.441 0.927,34.186 0.927,32.636 L0.927,3.69 C0.927,2.142 2.183,0.886 3.733,0.886 Z M35.111,18.527 C35.111,20.281 36.533,21.704 38.288,21.704 C40.042,21.704 41.465,20.281 41.465,18.527 C41.465,16.772 40.042,15.35 38.288,15.35 C36.533,15.35 35.111,16.772 35.111,18.527 Z M22.76,18.527 C22.76,20.281 24.182,21.704 25.936,21.704 C27.69,21.704 29.113,20.281 29.113,18.527 C29.113,16.772 27.69,15.35 25.936,15.35 C24.182,15.35 22.76,16.772 22.76,18.527 Z M10.407,18.527 C10.407,20.281 11.829,21.704 13.583,21.704 C15.338,21.704 16.76,20.281 16.76,18.527 C16.76,16.772 15.338,15.35 13.583,15.35 C11.829,15.35 10.407,16.772 10.407,18.527 Z" id="path-1"></path>
    </defs>
    <g id="Page-1" stroke="none" stroke-width="1" fill="none" fill-rule="evenodd">
        <g id="Landing-Copy-3" transform="translate(-621.000000, -2305.000000)">
            <g id="FEEDBACK" transform="translate(621.000000, 2305.000000)">
                <polygon id="Fill-1" fill="#00A9C7" points="100.9272 85.1481 50.9262 113.4811 0.9272 85.1481 0.9272 28.4811 50.9262 0.1481 100.9272 28.4811"></polygon>
                <g id="Group-4" transform="translate(25.000000, 35.120000)">
                    <mask id="mask-2" fill="white">
                        <use xlink:href="#path-1"></use>
                    </mask>
                    <g id="Clip-3"></g>
                    <polygon id="Fill-2" fill="#FFFFFF" mask="url(#mask-2)" points="-2.658 46.089 54.512 46.089 54.512 -2.699 -2.658 -2.699"></polygon>
                </g>
            </g>
        </g>
    </g>
</svg>
